X: 7634
T:Polska
D:Anders Rosen / Roland Keijser
R:Polska
O:Sweden
M:3/4
C:e. Lejsme Per
A:Dalarna
K:D
DF A>F GB|A<G E3F|G>A BG F>F|(3ECE D4::\
(A2 A)c e>c|(3ABc (d2 d)(A|
A2) d2 e2|f2 fg ef|\
ga b2fg|e2 B4| e>d (3cec (d2|d)f (3cec d2|
AB AG F>F|(3ECE D4::\
AB AG FG|AB cd ef|
ga gf ed|c<e a2 (A2|\
A)B AG FG|AB cd ef|ga gf ed|(3cec d4:|
